file/kodak.svg

<svg clip-rule="evenodd" fill-rule="evenodd" stroke-linejoin="round" stroke-miterlimit="1.41421" viewBox="0 0 560 400" xmlns="http://www.w3.org/2000/svg"><g fill="#da0029" fill-rule="nonzero" transform="matrix(1.03302 0 0 1.03302 72.3625 48.1452)"><path d="m98.922 105.357h-24.773l-27.267 34.254v-34.254h-20.128v84.184h20.128v-37.502l27.267 37.502h26.321l-33.086-44.793z"/><path d="m349.361 157.141 23.776-29.527h-22.172l-19.826 24.972v-49.851h-20.127v86.806h20.127v-24.937l19.639 24.937h24.468z"/><path d="m129.09 125.6c-22.112 0-33.959 14.705-33.959 32.832 0 18.131 11.668 32.834 33.959 32.834s33.958-14.703 33.958-32.834c0-18.127-11.845-32.832-33.958-32.832zm0 50.088c-10.124 0-15.423-7.727-15.423-17.256 0-9.526 5.377-17.257 15.423-17.257 10.043 0 15.423 7.729 15.423 17.257-.002 9.529-5.301 17.256-15.423 17.256z"/><path d="m216.72 129.477c-3.821-2.434-8.847-3.877-14.306-3.877-21.991 0-33.768 14.705-33.768 32.832 0 18.131 11.601 32.834 33.768 32.834s33.587-14.703 33.587-32.834v-55.697h-19.281zm-14.304 46.211c-10.063 0-15.336-7.727-15.336-17.256 0-9.526 5.35-17.257 15.336-17.257 9.991 0 15.337 7.729 15.337 17.257 0 9.529-5.269 17.256-15.337 17.256z"/><path d="m274.48 125.332c-6.994 0-16.694.83-22.173 3.142v14.603c3.211-1.976 10.548-3.55 18.742-3.55 9.322 0 14.315 2.348 14.315 9.596h-14.478c-17.915 0-28.933 4.076-28.933 19.781 0 13.947 11.145 22.361 30.771 22.361 18.094 0 29.893-10.063 29.893-22.897v-18.175c.003-17.402-9.93-24.861-28.137-24.861zm10.886 42.592c0 4.354-5.088 7.764-12.891 7.764-8.461 0-13.267-2.717-13.267-7.584 0-5.189 4.46-6.709 12.188-6.709h13.969v6.529z"/></g></svg>

<?xml version="1.0" encoding="UTF-8" standalone="no"?>
<!DOCTYPE svg PUBLIC "-//W3C//DTD SVG 1.1//EN" "http://www.w3.org/Graphics/SVG/1.1/DTD/svg11.dtd">
<svg width="100%" height="100%" viewBox="0 0 560 400" version="1.1" xmlns="http://www.w3.org/2000/svg" xmlns:xlink="http://www.w3.org/1999/xlink" xml:space="preserve" xmlns:serif="http://www.serif.com/" style="fill-rule:evenodd;clip-rule:evenodd;stroke-linejoin:round;stroke-miterlimit:1.41421;">
    <g transform="matrix(1.03302,0,0,1.03302,72.3625,48.1452)">
        <path id="k_1_" d="M98.922,105.357L74.149,105.357L46.882,139.611L46.882,105.357L26.754,105.357L26.754,189.541L46.882,189.541L46.882,152.039L74.149,189.541L100.47,189.541L67.384,144.748L98.922,105.357Z" style="fill:rgb(218,0,41);fill-rule:nonzero;"/>
        <path id="k" d="M349.361,157.141L373.137,127.614L350.965,127.614L331.139,152.586L331.139,102.735L311.012,102.735L311.012,189.541L331.139,189.541L331.139,164.604L350.778,189.541L375.246,189.541L349.361,157.141Z" style="fill:rgb(218,0,41);fill-rule:nonzero;"/>
        <path id="o" d="M129.09,125.6C106.978,125.6 95.131,140.305 95.131,158.432C95.131,176.563 106.799,191.266 129.09,191.266C151.381,191.266 163.048,176.563 163.048,158.432C163.048,140.305 151.203,125.6 129.09,125.6ZM129.09,175.688C118.966,175.688 113.667,167.961 113.667,158.432C113.667,148.906 119.044,141.175 129.09,141.175C139.133,141.175 144.513,148.904 144.513,158.432C144.511,167.961 139.212,175.688 129.09,175.688Z" style="fill:rgb(218,0,41);fill-rule:nonzero;"/>
        <path id="d" d="M216.72,129.477C212.899,127.043 207.873,125.6 202.414,125.6C180.423,125.6 168.646,140.305 168.646,158.432C168.646,176.563 180.247,191.266 202.414,191.266C224.581,191.266 236.001,176.563 236.001,158.432L236.001,102.735L216.72,102.735L216.72,129.477ZM202.416,175.688C192.353,175.688 187.08,167.961 187.08,158.432C187.08,148.906 192.43,141.175 202.416,141.175C212.407,141.175 217.753,148.904 217.753,158.432C217.753,167.961 212.484,175.688 202.416,175.688Z" style="fill:rgb(218,0,41);fill-rule:nonzero;"/>
        <path id="a" d="M274.48,125.332C267.486,125.332 257.786,126.162 252.307,128.474L252.307,143.077C255.518,141.101 262.855,139.527 271.049,139.527C280.371,139.527 285.364,141.875 285.364,149.123L270.886,149.123C252.971,149.123 241.953,153.199 241.953,168.904C241.953,182.851 253.098,191.265 272.724,191.265C290.818,191.265 302.617,181.202 302.617,168.368L302.617,150.193C302.62,132.791 292.687,125.332 274.48,125.332ZM285.366,167.924C285.366,172.278 280.278,175.688 272.475,175.688C264.014,175.688 259.208,172.971 259.208,168.104C259.208,162.915 263.668,161.395 271.396,161.395L285.365,161.395L285.365,167.924L285.366,167.924Z" style="fill:rgb(218,0,41);fill-rule:nonzero;"/>
    </g>
</svg>
